X: 5280
T: Broomstick, The
R: reel
M: 4/4
K: Edorian
|:E2 FD E2 FA|Bcdc BAFE|D2DE D2DE|FAAG FEDF|
E2 FD E2 FA|B2BA Beec|d2cd BABc|dBAF FE E2:|
|:e2 fd e2fd|e2 fd edBc|d2fe d3A|d2fe dBBA|
e2 fd e2fd|e2 fd edBc|d2 cd BABc|dBAF FE E2:|

